X: 84
T: The Wonder Hornpipe
B: begged borrowed and stolen
M:4/4
L:1/8
R: hornpipe
Q: 1/4=100
K:G
V:1 
DEF|:"G"GdBG "D"FcAF|"G"(3GFG "D"BG "G"D2GF|"C"EAAB "Am"cBAG|"C"(3FED d^c "D"ed (3=cBA|
"G"GdBG "D"FcAF|"G"(3GFG "D"BG "G"D2GF|"C"Eedc "Am"BADF|1"C"AG"D"GF "G"G2 (3DEF:|2"C"AG"D"GF "G"G2 AG||
|:"D"FAd^c d2AG|FAd^c "A"dfed|(3B^cd ef "D"gece|d^cde "D7"d2 =c2|
"B7"B3A "E"^GBe2|"A"A3G "D"FAd2|"C"(3efg fe "D"(3ded (3cBA|1"G"G2"D"(3AGF "G"G2 AG:|2"G"G2"D"(3AGF "G"G4||
% abcbook-tune_id 627e2b1f28b17a6d5ce35c5d


% abcbook-boost 0
% abcbook-tablature 
% abcbook-transpose 
% abcbook-lastupdated 1652725431121
% abcbook-soundfonts 
% abcbook-repeats 3
% Titles One title
% Transcriptions Only 1 transcription
% Movement Has lots of stepwise movement
% Movement Has some stepwise movement
% Mode major
% Key G
% Time_signature 4/4
% Has_accompaniment_chords No chords

